X:1
T: Feet Washing
C:
R:Jig
Q:180
K:A
M:6/8
L:1/16
|:f2|e2c2A2 A2B2A2|B2c2e2 f4e2|fga2f2 e2c2e2|fga2c2 B4a2|
e2c2A2 A2B2A2|B2c2e2 f4g2|a2g2f2 e2c2e2|fga2c2 A4:|
|:e2|fga2e2 f4e2|fga2f2 e2c2e2|fga2e2 f4e2|f2a2c2 B4e2|
|1fga2e2 f4e2|fga2f2 e2c2e2|fga2e2 f4e2|f2a2c2 A4:|
|2e2c2A2 A2B2A2|B2c2e2 f4e2|fga2f2 e2c2e2|f2a2c2 A4||
